X:1
T:Title
%%score { ( 1 4 5 ) | ( 2 3 ) }
L:1/8
M:6/8
K:Ab
V:1 treble nm="Grand Piano"
V:4 treble 
V:5 treble 
V:2 bass 
V:3 bass 
V:1
 z3 z2[Q:1/4=100] [CE] | [CA]>[CA][CA] [CA][DB][Ec] | [FB]2 [Fd] F2 B | A>GF E2 B | %4
 [CA]2 (3e/f/g/ a2 [A,CE] | [CA]>[CA][CA] [CA][DB][Ec] | [FB]2 [Fd] F2 B | A>GF E2 B | %8
[M:5/8] [CA]2 (3e/f/g/ a2 |[M:1/8] c |[M:3/4] [Ge]>G GG Fd | c>E E [CE]2 [Ec] | %12
 [=Dc]>[DB] [DA] [DF]2 [DB] | B6 | d>c B[EG] [EA][EB] | z2 z .e3 | c>B A E2 B | %17
[M:5/8] [CA]2 (3e/f/g/ a2 |] %18
V:2
 z3 z2 [A,,A,] | [A,,E,]>[A,,E,][A,,E,] [A,,E,][A,,E,][A,,A,] | [D,A,]2 [D,A,] [D,A,D]2 [D,F,D] | %3
 [E,D]>[E,B,D][E,A,D] [E,G,D]2 [E,D] | [A,,E,]2 [E,,E,] A,,,2 A,, | %5
 [A,,E,]>[A,,E,][A,,E,] [A,,E,][A,,E,][A,,A,] | [D,A,]2 [D,A,] [D,A,D]2 [D,F,D] | %7
 [E,D]>[E,B,D][E,A,D] [E,G,D]2 [E,D] |[M:5/8] [A,,E,]2 [E,,E,] A,,,2 |[M:1/8] [A,E] | %10
[M:3/4] z2 z .B,3 | [A,E]>[E,A,] [C,A,] A,,2 [A,,A,] | [B,,A,]>[B,,A,] [B,,F,] [B,,B,]2 [B,,A,] | %13
 z2 z B, z2 | [E,B,E]>[E,A,E] [E,G,E][D,B,] [C,A,][B,,G,] | [A,,A,]2 [B,,G,] [C,A,]2 [D,A,] | %16
 [E,A,E]>[E,G,D] [E,A,C] [E,B,D]2 [E,D] |[M:5/8] [A,,E,]2 [E,,E,] A,,,2 |] %18
V:3
 x6 | x6 | x6 | x6 | x6 | x6 | x6 | x6 |[M:5/8] x5 |[M:1/8] x | %10
[M:3/4] [E,B,]>[E,B,] [E,B,]E, F,[G,B,E] | x6 | x6 | [E,G,E]2 [F,A,] G,2 [A,CE] | x6 | x6 | x6 | %17
[M:5/8] x5 |] %18
V:4
 x6 | x6 | x6 | x6 | x6 | x6 | x6 | x6 |[M:5/8] x5 |[M:1/8] x |[M:3/4] x6 | x6 | x6 | z2 .=D2 _Dc | %14
 x6 | [Ec]2 [Ed]E _G[Fd] | x6 |[M:5/8] x5 |] %18
V:5
 x6 | x6 | x6 | x6 | x6 | x6 | x6 | x6 |[M:5/8] x5 |[M:1/8] x |[M:3/4] x6 | x6 | x6 | z2 z .E3 | %14
 x6 | x6 | x6 |[M:5/8] x5 |] %18

